src/assets/images/lock-with-tick.svg

<svg xmlns="http://www.w3.org/2000/svg" width="20" height="22" viewBox="0 0 20 22" fill="none">
  <path d="M7.6224 0.460938C5.60525 0.460938 3.95573 2.11046 3.95573 4.1276V5.96094H2.35156C1.21528 5.96094 0.289062 6.88715 0.289062 8.02344V16.7318C0.289062 17.8681 1.21528 18.7943 2.35156 18.7943H8.75391C8.52951 18.3646 8.35525 17.9015 8.24067 17.4193H2.35156C1.97201 17.4193 1.66406 17.1113 1.66406 16.7318V8.02344C1.66406 7.64388 1.97201 7.33594 2.35156 7.33594H12.8932C13.2728 7.33594 13.5807 7.64388 13.5807 8.02344V10.1026C14.0295 10.0668 14.4926 10.0859 14.9557 10.1599V8.02344C14.9557 6.88715 14.0295 5.96094 12.8932 5.96094H11.2891V4.1276C11.2891 2.11046 9.63954 0.460938 7.6224 0.460938ZM7.6224 1.83594C8.89714 1.83594 9.91406 2.85286 9.91406 4.1276V5.96094H5.33073V4.1276C5.33073 2.85286 6.34766 1.83594 7.6224 1.83594ZM7.6224 11.0026C6.86328 11.0026 6.2474 11.6185 6.2474 12.3776C6.2474 13.1367 6.86328 13.7526 7.6224 13.7526C8.38151 13.7526 8.9974 13.1367 8.9974 12.3776C8.9974 11.6185 8.38151 11.0026 7.6224 11.0026ZM14.0391 11.0026C11.2556 11.0026 8.9974 13.2608 8.9974 16.0443C8.9974 18.8277 11.2556 21.0859 14.0391 21.0859C16.8225 21.0859 19.0807 18.8277 19.0807 16.0443C19.0807 13.2608 16.8225 11.0026 14.0391 11.0026ZM16.7891 13.7526C16.906 13.7526 17.023 13.798 17.1137 13.8863C17.2928 14.0653 17.2928 14.3566 17.1137 14.5356L13.447 18.2023C13.3563 18.2906 13.2394 18.3359 13.1224 18.3359C13.0054 18.3359 12.8885 18.2906 12.7977 18.2023L10.9644 16.3689C10.7854 16.1899 10.7854 15.8987 10.9644 15.7196C11.1434 15.5406 11.4347 15.5406 11.6137 15.7196L13.1224 17.2307L16.4644 13.8863C16.5551 13.798 16.6721 13.7526 16.7891 13.7526Z" fill="#F2F5F6"/>
</svg>

<svg xmlns="http://www.w3.org/2000/svg" width="20" height="22" fill="none"><path fill="#F2F5F6" d="M7.622.46a3.677 3.677 0 0 0-3.666 3.668V5.96H2.352A2.066 2.066 0 0 0 .289 8.023v8.709c0 1.136.926 2.062 2.063 2.062h6.402a6 6 0 0 1-.513-1.375H2.35a.69.69 0 0 1-.687-.687V8.023c0-.38.308-.687.688-.687h10.541c.38 0 .688.308.688.687v2.08a5.8 5.8 0 0 1 1.375.057V8.023a2.066 2.066 0 0 0-2.063-2.062H11.29V4.128A3.677 3.677 0 0 0 7.622.46m0 1.376a2.28 2.28 0 0 1 2.292 2.292V5.96H5.331V4.128a2.28 2.28 0 0 1 2.291-2.292m0 9.167a1.375 1.375 0 1 0 .001 2.75 1.375 1.375 0 0 0 0-2.75m6.417 0a5.043 5.043 0 0 0-5.042 5.041 5.043 5.043 0 1 0 5.042-5.042m2.75 2.75a.46.46 0 0 1 .325.783l-3.667 3.666a.465.465 0 0 1-.65 0l-1.833-1.833a.46.46 0 0 1 .65-.65l1.508 1.512 3.342-3.345a.47.47 0 0 1 .325-.133"/></svg>
